X: 26623
T: Mickey Doherty's
R: strathspey
M: 4/4
K: Amixolydian
|e<aa>^g a>ba>g|e>fe>d e2(3Bcd|e>aa>^g e>f=g>e|d>GB>c d2c>d|
e<aa>^g a>ba>g|e>fe>d e2(3Bcd|e>=gf>a g>fg>e|d>GB>c d2e>d|
|:c>AA2 (3cBA A2|e>fe>d e>ae>d|c>AA2 (3cBA A2|1 e>dB>c d2e>d:|2 e>dB>c d2c>d||

